X:1
T: Major Spicer
C:
R:Jig
Q:180
K:C
M:6/8
L:1/16
|:gf|e4e2 f2e2f2|g4e2 c'4a2|g4e2 c2B2c2|d4B2 G2g2f2|
e4e2 f2e2f2|g4e2 c'4a2|g4e2 c2B2c2|e6c4:|
fe|d4d2 d2e2f2|g4e2 c4cB|A4A2 A2B2c2|d4B2 G2g2e2|
B4B2 B2c2d2|e4e2 c'4a2|g2e2c2 c2B2c2|c6B4gf|
e4e2 f2e2f2|g4e2 c'4a2|g4e2 c2B2c2|d4B2 G2g2f2|
e4e2 f2e2f2|g4e2 c'4a2|g4e2 c2B2c2|e6c4:|
